X: 21132
T: Kas A-Barh Karnak
R: reel
M: 4/4
K: Eminor
|:"Em"E2 GF E3B ~A2 GA FEFG|E2 DE F3 G E2EG "D" F2 F2|
"Em"E2 GF E3B ~A2 GA FEFG|E2 DE GEFD EE"Bm"GB "Em"E4:|
|:"Em"E2 DE "G"B3 c BGAB "C"c2 dc|"Em"B2 ~G2 E2 GB ABAG "D"F2 F2|
"Em"E2 DE "G"B3 c BGAG "Bm"FABG|"Em" E2 DE GEFD EE"Bm"GB "Em"E4:|

